X:1
T:Mazurka de Lapleau
C:"Petite fleur des champs", fichier abc : Bernard Loffet
L:1/8
Q:400
K:G
M:9/8
 z6 [D2G,2]G |: [B3G,,3] [B2G,2]d [B2G,2]G | [B3G,,3] [B2G,2]d [B2G,2]G | [A3D,,3] [A2D,2]c [B2D,2]A | \
 [B3G,,3] [G3G,3] [D2G,2]G | [B3G,,3] [B2G,2]d [B2G,2]G | [B3G,,3] [B2G,2]d [B2G,2]G | \
 [A3D,,3] [A2D,2]c [B2D,2]A |1 [G3G,,3] G,3 [D2G,2]G :|2 [G3G,,3] G,3 [d2G,2]B |: [G3G,,3] [G2G,2]B [d2G,2]B | \
 [c3A,,3] [A3A,3] [c2A,2]A | [F2D,,2]F [F2D,2]A [c2D,2]A | [B3G,,3] G,3 [d2G,2]B | \
 [G3G,,3] [G2G,2]B [d2G,2]B | [c3A,,3] [A3A,3] [c2A,2]A | [F2D,,2]F [F2D,2]c [A2D,2]F | \
|1 [G3G,,3] G,3 [d2G,2]B :|2 [G3G,,3] G,6 | \
W:Created with TablEdit http://www.tabledit.com/ by Bernard Loffet
